FINK
CUT[IN MEINEM GAERTCHEN]
REG[Europa, Mitteleuropa, Deutschland]
KEY[F0871  16  F 2/4]
MEL[5_  5_3_4_5_  6_5_4_
    3_  2_1_-7_1_  2__0_
    2_  3_5_5_4_  3_4_5_
    1_  6_545_67  +1___  0__. //] >>
FCT[Liebes - Lied]
